X:1
T:In the Great Triumphant Morning
T:Robert Emmett Winsett, 1918
T:In the Great Triumphant Morning
T:Public Domain
T:Public Domain
T:Public Domain
C:Robert Emmett Winsett, 1918
Z:Public Domain
%%score ( 1 2 ) ( 3 4 )
L:1/8
M:4/4
K:Ab
V:1 treble 
V:2 treble 
V:3 bass 
V:4 bass 
V:1
 [Ec][DB] | [CA][CA][CA][CA] [DF][CE][A,C][CE] | %2
w: 1.~In the|great tri- umph- ant morn- ing, When we|
w: 2.~In the|great tri- umph- ant morn- ing, What a|
w: 3.~In the|great tri- umph- ant morn- ing, When the|
w: 4.~In the|great tri- umph- ant morn- ing, All the|
 [FA]>[FA] [FA][DF] [CA]2 [EA][EB](EEAA[Ac])[Ac][EB][FA] | (GGFF G2) [Ac][GB] | %4
w: hear the Bride- groom cry, And the dead * * * * in Christ shall|We’ll * * * * be changed|
w: hap- py time ’twill be, When the dead * * * * in Christ shall|When * * * * the Lord|
w: har- vest is com- plete, And the dead * * * * in Christ shall|We’ll * * * * be crowned|
w: king- dom we’ll pos- sess, Then the dead * * * * in Christ shall|Reign * * * * as kings|
 A[EA][EA][EA] [DF][CE][A,C][CE] | [FA]>[FB] [FA][DF] [CA]2 [EA][EB] | (EEFF [Ec])[Ec][DB][DB] | %7
w: life im- mor- tal, In the twink- ling|an eye, And meet Je- sus in|the * * * * skies. * *|
w: scends in glo- ry, Sets His wait- ing|ren free, And we meet Him in|the * * * * skies. We shall|
w: life im- mor- tal, Christ and all the|ones meet, In the rap- ture in|the * * * * skies. We shall|
w: priests e- ter- nal, Un- der Christ for-|er blest, Af- ter meet- ing in|the * * * * skies. * *|
 (C2 DD C2) |:"^Refrain" [Ec][Ed] | [Ae]2 [Ae][Ae] [Ae][Ec][DB][CA] | %10
w: |||
w: |to meet|Him, We shall all rise to greet|
w: |to meet|Him, We shall all rise to greet|
w: |||
 [Ec]2 [Ec][Ec] [DB][CA][CE][CF] | [CA][EA][EA][GB] [Ac][Ac][EB][FA] | [GB]6 :| [GB][GB] | %14
w: ||||
w: Him, In the morning when the dead|in Christ shall rise * * * *|||
w: Him, And shall have the mar- riage|sup- per ~ ~ ~ in the skies|(up|in the|
w: ||||
 AECD E2 |] %15
w: |
w: |
w: skies). * * * *|
w: |
V:2
 x2 | x8 | x8 c4- x4 | B6 x2 | A x7 | x8 | c4- x4 | A6 |: x2 | x8 | x8 | x8 | x6 :| x2 | A6 |] %15
w: ||rise,|to|of|||||||||||
w: ||rise,|de-|child-||all|rise||||||||
w: ||rise,|with|loved||all|rise||||||||
w: ||rise,|and|ev-|||||||||||
V:3
 [A,,A,][A,,A,] | [A,,E,][A,,E,][A,,E,][A,,E,] [A,,A,][A,,A,]A,A, | %2
w: ~ ~|~ ~ ~ ~ ~ ~ ~ ~|
 [D,A,]>[D,D] [D,D][D,A,] [A,,A,]2 [C,A,][E,G,]A,A,[A,E][A,E][A,E][A,E][G,E][G,D] | %3
w: ~ ~ ~ ~ ~ dead, the ran- somed dead, in Christ shall rise, they|
 [E,E][E,E][B,,=D][B,,D] [E,E]2 [A,E][A,_D] | [A,,A,C][A,,A,C][A,,A,C][A,,A,C] [A,,A,][A,,A,]A,A, | %5
w: rise ~ ~ ~ ~ ~ ~|~ ~ ~ ~ ~ ~ ~ ~|
 [D,A,]>[D,D] [D,D][D,A,] [A,,A,]2 [C,A,][E,G,] | A,A,[F,A,][F,A,] [C,A,][C,A,][E,G,][E,G,] | %7
w: meet Je- sus in the skies up|in thte skies, heav’n- ly skies. * *|
 A,2 F,F, E,2 |: A,[A,B,] | [A,C]2 [A,C][A,C] [A,,C][A,,A,][A,,E,][A,,E,] | %10
w: |||
 [A,,A,]2 [A,,A,][A,,A,] [A,,E,][A,,E,][A,,A,][A,,A,] | %11
w: |
 [A,,A,][A,,C][C,C][E,C] [A,E][A,E][G,E][F,=D] | [E,E]2 [E,E][E,E] [E,E]2 :| [E,D][E,D] | %14
w: |||
 CCA,B, C2 |] %15
w: |
V:4
 x2 | x6 A,A, | x8 A,A, x6 | x8 | x6 A,A, | x8 | A,A, x6 | A,,6 |: A, x | x8 | x8 | x8 | x6 :| x2 | %14
w: |~ ~|all shall||~ 1.~And||||||||||
 A,,6 |] %15
w: |

